src/assets/icons/Github_icon.svg

<?xml version="1.0" encoding="UTF-8"?>
<svg width="64" height="64" fill="none" version="1.1" viewBox="0 0 64 64" xmlns="http://www.w3.org/2000/svg" xmlns:cc="http://creativecommons.org/ns#" xmlns:dc="http://purl.org/dc/elements/1.1/" xmlns:rdf="http://www.w3.org/1999/02/22-rdf-syntax-ns#">
 <metadata>
  <rdf:RDF>
   <cc:Work rdf:about="">
    <dc:format>image/svg+xml</dc:format>
    <dc:type rdf:resource="http://purl.org/dc/dcmitype/StillImage"/>
    <dc:title/>
   </cc:Work>
  </rdf:RDF>
 </metadata>
 <circle transform="matrix(.99734 0 0 1.0002 .014733 -.0060673)" cx="32" cy="28" r="24" fill="#fff"/>
 <path d="m32.001 16c-6.6307-0.0027-12.001 5.3652-12.001 11.991 0 5.2392 3.3596 9.6928 8.0384 11.328 0.6301 0.1582 0.5336-0.2896 0.5336-0.5953v-2.078c-3.6385 0.4264-3.7859-1.9814-4.0299-2.3836-0.4934-0.8419-1.6597-1.0564-1.3112-1.4586 0.8285-0.4263 1.6731 0.1072 2.6518 1.5524 0.7078 1.0484 2.0887 0.8715 2.7885 0.6972 0.1528-0.6301 0.48-1.1932 0.9304-1.6302-3.7698-0.6757-5.3411-2.9762-5.3411-5.7111 0-1.3273 0.4371-2.5472 1.2951-3.5313-0.547-1.6221 0.0509-3.011 0.1314-3.2175 1.5578-0.1394 3.1773 1.1154 3.3033 1.2146 0.8848-0.2386 1.8956-0.3646 3.0271-0.3646 1.1369 0 2.1504 0.1314 3.0433 0.3727 0.3029-0.2306 1.8045-1.3085 3.2523-1.1771 0.0778 0.2065 0.6623 1.5632 0.1475 3.1639 0.8687 0.9867 1.3111 2.2174 1.3111 3.5473 0 2.7403-1.5819 5.0435-5.3625 5.7084 0.3238 0.3185 0.5809 0.6983 0.7563 1.1172s0.2656 0.8686 0.2653 1.3228v3.0164c0.0214 0.2413 0 0.4799 0.4022 0.4799 4.7485-1.6007 8.1671-6.0864 8.1671-11.371 0-6.6281-5.3733-11.993-11.999-11.993z" fill="#1a1a1a"/>
</svg>

<svg width="64" height="64" viewBox="0 0 64 64" fill="none" xmlns="http://www.w3.org/2000/svg">
<g filter="url(#filter0_d)">
<circle cx="32" cy="28" r="24" fill="white"/>
</g>
<path d="M32.0013 16C25.3706 15.9973 20 21.3652 20 27.9906C20 33.2298 23.3596 37.6834 28.0384 39.319C28.6685 39.4772 28.572 39.0294 28.572 38.7237V36.6457C24.9335 37.0721 24.7861 34.6643 24.5421 34.2621C24.0487 33.4202 22.8824 33.2057 23.2309 32.8035C24.0594 32.3772 24.904 32.9107 25.8827 34.3559C26.5905 35.4043 27.9714 35.2274 28.6712 35.0531C28.824 34.423 29.1512 33.8599 29.6016 33.4229C25.8318 32.7472 24.2605 30.4467 24.2605 27.7118C24.2605 26.3845 24.6976 25.1646 25.5556 24.1805C25.0086 22.5584 25.6065 21.1695 25.687 20.963C27.2448 20.8236 28.8643 22.0784 28.9903 22.1776C29.8751 21.939 30.8859 21.813 32.0174 21.813C33.1543 21.813 34.1678 21.9444 35.0607 22.1857C35.3636 21.9551 36.8652 20.8772 38.313 21.0086C38.3908 21.2151 38.9753 22.5718 38.4605 24.1725C39.3292 25.1592 39.7716 26.3899 39.7716 27.7198C39.7716 30.4601 38.1897 32.7633 34.4091 33.4282C34.7329 33.7467 34.99 34.1265 35.1654 34.5454C35.3408 34.9643 35.431 35.414 35.4307 35.8682V38.8846C35.4521 39.1259 35.4307 39.3645 35.8329 39.3645C40.5814 37.7638 44 33.2781 44 27.9933C44 21.3652 38.6267 16 32.0013 16Z" fill="#4DA8FF"/>
<defs>
<filter id="filter0_d" x="0" y="0" width="64" height="64" filterUnits="userSpaceOnUse" color-interpolation-filters="sRGB">
<feFlood flood-opacity="0" result="BackgroundImageFix"/>
<feColorMatrix in="SourceAlpha" type="matrix" values="0 0 0 0 0 0 0 0 0 0 0 0 0 0 0 0 0 0 127 0"/>
<feOffset dy="4"/>
<feGaussianBlur stdDeviation="4"/>
<feColorMatrix type="matrix" values="0 0 0 0 0.0611066 0 0 0 0 0.437703 0 0 0 0 0.793181 0 0 0 0.15 0"/>
<feBlend mode="normal" in2="BackgroundImageFix" result="effect1_dropShadow"/>
<feBlend mode="normal" in="SourceGraphic" in2="effect1_dropShadow" result="shape"/>
</filter>
</defs>
</svg>
